X:1
T:Sing We Now Our Hymns of Gladness
T:Sing We Now Our Hymns of Gladness
T:Percy Lee Atherton, before 1917
T:Samuel Longfellow (1819-1892)
T:Public Domain Courtesy of the Cyber Hymnal™
T:Public Domain Courtesy of the Cyber Hymnal™
C:Percy Lee Atherton, before 1917
Z:Public Domain
Z:Courtesy of the Cyber Hymnal™
%%score ( 1 2 ) ( 3 4 ) ( 5 6 )
L:1/8
Q:1/4=105
M:4/4
K:D
V:1 treble 
V:2 treble 
V:3 treble 
V:4 treble 
V:5 bass 
V:6 bass 
V:1
 [FA]2 [Ad]2 c3 (z d) | [EA]2 (GA) [DF]2 D2 | B3 (z B) [EA]2 D2 | [DG]2 G2 [CF]4 | %4
w: 1.~Sing we now *|* our * hymns of|glad- * ness, On|this hap- py|
w: 2.~Death is con- *|* quered, * and we|con- * quer, When|to ho- ly|
w: 3.~Al- le- lu- *|* ia! * Al- le-|lu- * ia! Life|a- gain from|
 [CE]2 (FG) [EA]2 D2 | E2 (FG) [CB]2 [DA]2 | A3 (z B) [Ac]2 (ec) | [FA]2 [^GB]2 [EA]4 | %8
w: Eas- ter * morn; Sing|of life, * the life|im- * mor- tal, *|Life that out|
w: life we * rise— That|is life, * and life|im- * mor- tal, *|That the life|
w: death is * born— Thus|we sing * our hymn|of * glad- ness *|On this hap-|
"^Unison" e4 B4 x2 | e2 e2 A4 x2 | E3 F G2 G2 x | (F2 G2) A4 | e4 B4 x4 | A2 d2 (d2 cB) | %14
w: of death|is born. Sing,|sing, child- ren, sing!|Sing * of|life im-|mor- tal, Bring, * *|
w: which ne-|ver dies. Strong,|strong, lift your song,|Beau- * ti-|ful and|glor- ious; Rise, * *|
w: py Eas-|ter morn. Sing,|sing, child- ren sing!|Sing * of|life im-|mor- tal; Bring, * *|
 A2 (Bc) d2 B2 |"^rit." (c3 d) d4 |] %16
w: bring flowers * of spring|To * the|
w: rise, earth * has risen,|Risen * to|
w: bring flowers * of spring|To * the|
V:2
 x4 G2 =F2 x | x2 C2 x D2 x | D2 (E2 x D2) x2 | x2 (ED) x4 | x2 C2 x D2 x | (DC) C2 x4 | %6
 D2 (A2 x A2) x2 | x8 | x10 | x10 | x9 | x8 | x12 | x8 | x8 | x8 |] %16
V:3
 [EGBe]4 [CEGB]4 x | d2 d2 [B,DFA]4 | E3 F [B,G]2 [CG]2 x | (F2 G2) A4 | [EGBe]4 [CEGB]4 | %5
 [DFA]2 [=CDFA]2 ([B,DG]2 [G,DG]2) | [A,DF]6 [F,B,D]2 x | (F2 E2) [F,A,DF]4 | x10 | x10 | x9 | x8 | %12
 x12 | x8 | x8 | x8 |] %16
V:4
 x9 | [DFA]4 x4 | D4 x5 | D4 (E2 D2) | x8 | x8 | x9 | [G,A,C]4 x4 | x10 | x10 | x9 | x8 | x12 | %13
 x8 | x8 | x8 |] %16
V:5
 [D,D]2 [F,A,]2 [E,A,]2 [D,^G,]2 x | [C,E,]2 [A,,A,]2 [D,A,]2 ([E,G,][F,A,]) | %2
 [G,B,]2 [G,B,]2 [G,C]2 [F,A,]2 x | [E,B,]2 (CB,) (B,2 ^A,2) | [G,B,]2 [G,A,]2 [F,A,]2 [F,A,]2 | %5
 A,2 [G,A,]2 [E,G,]2 [F,A,]2 | [F,A,]2 (A,D) [E,E]2 (CE) x | [E,C]2 [E,D]2 [A,C]4 | %8
 D2 A,,4 z2 [A,,,A,,]2- | [F,A,]4 z2 z2 [A,,,A,,-]2 | G,3 z F, E,2 A,2 | (D,2 E,2) F,4 | %12
 z2 z2 z2 [A,,,A,,]2- x4 | [A,,,A,,F,A,]2 [D,,D,]2 ([G,,G,]2 [E,,E,]2) | [A,,F,]6 A,,2 | %15
 [A,,,A,,]4 [D,,A,,]4 |] %16
V:6
 x9 | x8 | x9 | x2 E,2 F,4 | x8 | A,2 x6 | x2 =F,2 x E,2 x2 | x8 | [G,B,]4 A,,,2 [G,B,]4 | %9
 [A,,,A,,]2 [A,,,A,,]4 [F,A,]4 | A,,2 A,,6 x | A,,8 | [G,B,D]4 [A,,,A,,]4 [G,B,]4 | x8 | x8 | x8 |] %16

